assets/themes/natuurpunt/pushchair.svg

<?xml version="1.0" encoding="UTF-8" standalone="no"?>
<svg
   width="222.35574"
   height="190.93405"
   viewBox="0 0 222.35574 190.93405"
   version="1.1"
   id="svg838"
   sodipodi:docname="pushchair.svg"
   inkscape:version="1.1.1 (1:1.1+202109281949+c3084ef5ed)"
   xmlns:inkscape="http://www.inkscape.org/namespaces/inkscape"
   xmlns:sodipodi="http://sodipodi.sourceforge.net/DTD/sodipodi-0.dtd"
   xmlns="http://www.w3.org/2000/svg"
   xmlns:svg="http://www.w3.org/2000/svg">
  <defs
     id="defs842" />
  <sodipodi:namedview
     id="namedview840"
     pagecolor="#505050"
     bordercolor="#eeeeee"
     borderopacity="1"
     inkscape:pageshadow="0"
     inkscape:pageopacity="0"
     inkscape:pagecheckerboard="0"
     showgrid="false"
     inkscape:zoom="4.1922078"
     inkscape:cx="20.991326"
     inkscape:cy="71.680607"
     inkscape:current-layer="svg838" />
  <g
     id="surface1"
     transform="translate(-76.997323,65.973113)">
    <path
       style="fill:#ffffff;fill-opacity:1;fill-rule:nonzero;stroke:none"
       d="m 173.25,-28.378906 c -0.0312,-5.320313 2.07031,-10.429688 5.83203,-14.191406 3.76172,-3.757813 8.87109,-5.859376 14.1875,-5.828126 10.80078,0.597657 19.42188,9.21875 20.01953,20.019532 0,11.054687 -8.96094,20.019531 -20.01953,20.019531 -11.05469,0 -20.01953,-8.964844 -20.01953,-20.019531 z M 247.28125,22 c 10.00781,-2.859375 13.85937,1.210938 13.85937,1.210938 l 34.98047,27.390624 c 1.88672,1.59375 3.04688,3.890626 3.21094,6.355469 0.16797,2.46875 -0.67578,4.898438 -2.33203,6.734375 -3.8125,4.042969 -10.04297,4.609375 -14.51953,1.320313 l -28.16016,-22 -22,-17.492188 z m 28.59766,78.42969 c 0,13.54687 -10.98047,24.53125 -24.52735,24.53125 -13.55078,0 -24.53125,-10.98438 -24.53125,-24.53125 0,-13.546878 10.98047,-24.531252 24.53125,-24.531252 1.70313,0.05859 3.39844,0.28125 5.0586,0.660156 0.98437,-2.363282 1.21484,-4.976563 0.66015,-7.480469 -0.66406,-2.789063 -2.20703,-5.296875 -4.39844,-7.148437 L 243.76172,55 198,69.410156 c -9.10938,2.980469 -18.91797,-1.925781 -22,-11 v -2.53125 l -10.23047,23.320313 c 7,4.578125 11.15234,12.429687 11,20.789062 0,13.550779 -10.98047,24.531249 -24.53125,24.531249 -13.54687,0 -24.52734,-10.98047 -24.52734,-24.531249 0,-13.546875 10.98047,-24.527343 24.52734,-24.527343 1.70703,0.05078 3.40234,0.269531 5.0625,0.660156 L 171.26953,44 l -22,-64.789062 L 106.14844,-55 c -2.26953,-1.753906 -5.05078,-2.71875 -7.917971,-2.75 -7.167969,0 -12.980469,5.8125 -12.980469,12.980469 -0.226562,4.300781 1.714844,8.429687 5.171875,11 1.753906,1.507812 1.996094,4.136719 0.546875,5.941406 -0.75,0.8125 -1.804688,1.277344 -2.914062,1.277344 -1.109376,0 -2.164063,-0.464844 -2.914063,-1.277344 C 79.910156,-31.878906 76.894531,-38.15625 77,-44.769531 c 0.01172,-8.042969 4.5625,-15.386719 11.761719,-18.972657 7.195312,-3.589843 15.800781,-2.800781 22.226561,2.03125 L 258.28125,55.550781 c 3.4375,2.839844 5.89844,6.6875 7.03906,11 0.82422,4.179688 0.36328,8.515625 -1.32031,12.429688 7.38672,4.417969 11.89844,12.402343 11.87891,21.007812 z m -24.52735,11 c 6.07422,0 11,-4.92578 11,-11 0,-6.074221 -4.92578,-11.000002 -11,-11.000002 -6.07812,0 -11,4.925781 -11,11.000002 0.45703,5.73047 5.25,10.14062 11,10.12109 z m -99,0 c 6.07422,0 11,-4.92578 11,-11 0,-6.074221 -4.92578,-11.000002 -11,-11.000002 -6.07812,0 -11,4.925781 -11,11.000002 0.46485,5.85937 5.45313,10.3164 11.32813,10.12109 z m 0,0"
       id="path835" />
  </g>
</svg>

<?xml version="1.0" encoding="UTF-8" standalone="yes"?>
<svg xmlns="http://www.w3.org/2000/svg" xmlns:xlink="http://www.w3.org/1999/xlink" width="385px" height="11px" viewBox="0 0 385 11" version="1.1">
  <g id="surface1">
    <path style=" stroke:none;fill-rule:nonzero;fill:rgb(100%,100%,100%);fill-opacity:1;" d="M 173.25 -28.378906 C 173.21875 -33.699219 175.320312 -38.808594 179.082031 -42.570312 C 182.84375 -46.328125 187.953125 -48.429688 193.269531 -48.398438 C 204.070312 -47.800781 212.691406 -39.179688 213.289062 -28.378906 C 213.289062 -17.324219 204.328125 -8.359375 193.269531 -8.359375 C 182.214844 -8.359375 173.25 -17.324219 173.25 -28.378906 Z M 247.28125 22 C 257.289062 19.140625 261.140625 23.210938 261.140625 23.210938 L 296.121094 50.601562 C 298.007812 52.195312 299.167969 54.492188 299.332031 56.957031 C 299.5 59.425781 298.65625 61.855469 297 63.691406 C 293.1875 67.734375 286.957031 68.300781 282.480469 65.011719 L 254.320312 43.011719 L 232.320312 25.519531 Z M 275.878906 100.429688 C 275.878906 113.976562 264.898438 124.960938 251.351562 124.960938 C 237.800781 124.960938 226.820312 113.976562 226.820312 100.429688 C 226.820312 86.882812 237.800781 75.898438 251.351562 75.898438 C 253.054688 75.957031 254.75 76.179688 256.410156 76.558594 C 257.394531 74.195312 257.625 71.582031 257.070312 69.078125 C 256.40625 66.289062 254.863281 63.78125 252.671875 61.929688 L 243.761719 55 L 198 69.410156 C 188.890625 72.390625 179.082031 67.484375 176 58.410156 L 176 55.878906 L 165.769531 79.199219 C 172.769531 83.777344 176.921875 91.628906 176.769531 99.988281 C 176.769531 113.539062 165.789062 124.519531 152.238281 124.519531 C 138.691406 124.519531 127.710938 113.539062 127.710938 99.988281 C 127.710938 86.441406 138.691406 75.460938 152.238281 75.460938 C 153.945312 75.511719 155.640625 75.730469 157.300781 76.121094 L 171.269531 44 L 149.269531 -20.789062 L 106.148438 -55 C 103.878906 -56.753906 101.097656 -57.71875 98.230469 -57.75 C 91.0625 -57.75 85.25 -51.9375 85.25 -44.769531 C 85.023438 -40.46875 86.964844 -36.339844 90.421875 -33.769531 C 92.175781 -32.261719 92.417969 -29.632812 90.96875 -27.828125 C 90.21875 -27.015625 89.164062 -26.550781 88.054688 -26.550781 C 86.945312 -26.550781 85.890625 -27.015625 85.140625 -27.828125 C 79.910156 -31.878906 76.894531 -38.15625 77 -44.769531 C 77.011719 -52.8125 81.5625 -60.15625 88.761719 -63.742188 C 95.957031 -67.332031 104.5625 -66.542969 110.988281 -61.710938 L 258.28125 55.550781 C 261.71875 58.390625 264.179688 62.238281 265.320312 66.550781 C 266.144531 70.730469 265.683594 75.066406 264 78.980469 C 271.386719 83.398438 275.898438 91.382812 275.878906 99.988281 Z M 251.351562 111.429688 C 257.425781 111.429688 262.351562 106.503906 262.351562 100.429688 C 262.351562 94.355469 257.425781 89.429688 251.351562 89.429688 C 245.273438 89.429688 240.351562 94.355469 240.351562 100.429688 C 240.808594 106.160156 245.601562 110.570312 251.351562 110.550781 Z M 152.351562 111.429688 C 158.425781 111.429688 163.351562 106.503906 163.351562 100.429688 C 163.351562 94.355469 158.425781 89.429688 152.351562 89.429688 C 146.273438 89.429688 141.351562 94.355469 141.351562 100.429688 C 141.816406 106.289062 146.804688 110.746094 152.679688 110.550781 Z M 152.351562 111.429688 "/>
  </g>
</svg>
